cy/talk-bubbles-outline-badged.svg

<svg viewBox="0 0 36 36" xmlns="http://www.w3.org/2000/svg" height="1em" width="1em">
  <path d="M23 26a1 1 0 0 1-1 1H8c-.22 0-.43.2-.61.33L4 30V14a1 1 0 0 1 1-1h3.86v-2H5a3 3 0 0 0-3 3v18a1 1 0 0 0 .56.89 1 1 0 0 0 1-.1L8.71 29h13.44A2.77 2.77 0 0 0 25 26.13V25h-2Z" class="clr-i-outline--badged clr-i-outline-path-1--badged"/>
  <path d="M32 13.22v9.72l-3.5-2.73a1 1 0 0 0-.61-.21H14a1 1 0 0 1-1-1V7a1 1 0 0 1 1-1h8.5a7.49 7.49 0 0 1 .28-2H14a3 3 0 0 0-3 3v12a3 3 0 0 0 3 3h13.55l4.78 3.71a1 1 0 0 0 1 .11 1 1 0 0 0 .57-.9V12.37a7.45 7.45 0 0 1-1.9.85Z" class="clr-i-outline--badged clr-i-outline-path-2--badged"/>
  <circle cx="30" cy="6" r="5" class="clr-i-outline--badged clr-i-outline-path-3--badged clr-i-badge"/>
  <path fill="none" d="M0 0h36v36H0z"/>
</svg>

<svg version="1.1" viewBox="0 0 36 36" preserveAspectRatio="xMidYMid meet" xmlns="http://www.w3.org/2000/svg" height="1em" width="1em">
  <path d="M23,26a1,1,0,0,1-1,1H8c-.22,0-.43.2-.61.33L4,30V14a1,1,0,0,1,1-1H8.86V11H5a3,3,0,0,0-3,3V32a1,1,0,0,0,.56.89,1,1,0,0,0,1-.1L8.71,29H22.15A2.77,2.77,0,0,0,25,26.13V25H23Z" class="clr-i-outline--badged clr-i-outline-path-1--badged"/>
  <path d="M32,13.22v9.72L28.5,20.21a1,1,0,0,0-.61-.21H14a1,1,0,0,1-1-1V7a1,1,0,0,1,1-1H22.5a7.49,7.49,0,0,1,.28-2H14a3,3,0,0,0-3,3V19a3,3,0,0,0,3,3H27.55l4.78,3.71a1,1,0,0,0,1,.11,1,1,0,0,0,.57-.9V12.37A7.45,7.45,0,0,1,32,13.22Z" class="clr-i-outline--badged clr-i-outline-path-2--badged"/>
  <circle cx="30" cy="6" r="5" class="clr-i-outline--badged clr-i-outline-path-3--badged clr-i-badge"/>
  <rect x="0" y="0" width="36" height="36" fill-opacity="0"/>
</svg>
